X:1
T:Magnificat octavi toni - Soriano
T:#
%%score [ 1 2 3 4 ]
L:1/8
Q:1/4=130
M:none
K:C
V:1 treble nm="S" snm="S"
V:2 treble nm="A" snm="A"
V:3 treble-8 nm="T" snm="T"
V:4 treble nm="B" snm="B"
V:1
 z16 ||[Q:1/4=200][Q:1/4=200][Q:1/4=200][Q:1/4=200] z8 z4 c4- | c2 d2 e4 d4 B4 | (A2 G2 G8) ^F4 | %4
w: |A\-|* ni- ma me- a|Do\- * * mi-|
 G16 ||[Q:1/4=130][Q:1/4=130][Q:1/4=130][Q:1/4=130] z18 | z18 || %7
w: num.|||
[M:4/2][Q:1/4=200][Q:1/4=200][Q:1/4=200][Q:1/4=200] z16 | z8 G8 | A4 c4 B8 | c8 z8 | z16 | %12
w: |Hu-|mi- li- ta-|tem||
 z4 c6 c2 B4 | A12 G4 | G4 A4 B8 | G4 c4 A8 | G4 c8 c4 | B4 A4 G4 B4 | (A2 G2 G8 ^F4) | G16 || %20
w: ec- ce e-|nim ex|hoc be- a-|tam me di-|cent o- mnes|ge- ne- ra- ti-|o\- * * *|nes.|
[Q:1/4=130][Q:1/4=130][Q:1/4=130][Q:1/4=130] z20 | z18 || %22
w: ||
[M:4/2][Q:1/4=200][Q:1/4=200][Q:1/4=200][Q:1/4=200] z16 | z8 z4 c4 | B4 G8 A4 | G6 G2 F4 E4- | %26
w: |Et|mi- se- ri-|cor- di- a e\-|
 E4 D4 z4 A4 | c4 (d6 c2 c4- | c4) B4 c4 G4 | (A2 B2 c2 A2 B4) B4 | G4 (c6 B2 A4- | A2 G2 G8 ^F4) | %32
w: * ius in|pro- ge\- * *|* ni- es ti-|men\- * * * * ti-|bus e\- * *||
 G16 ||[Q:1/4=130][Q:1/4=130][Q:1/4=130][Q:1/4=130] x16 x2 | x16 x2 ||[Q:1/4=200] G8 A6 B2 | %36
w: um.|||De- po- su-|
 c4 c4 B8 |[M:4/2][Q:1/4=200][Q:1/4=200][Q:1/4=200][Q:1/4=200] A4 A4 (G6 A2 | B2 c2 d8 c2 B2 | %39
w: it po- ten-|tes de se\- *||
 A2 B2 c8 B4) | c4 c4 c4 A4 | G8 G4 (A4- | A2 G2 G8) ^F4 | G16 || %44
w: |de, et ex- al-|ta- vit hu\-|* * * mi-|les.|
[Q:1/4=135][Q:1/4=135][Q:1/4=135][Q:1/4=135] z18 | z18 || %46
w: ||
[M:4/2][Q:1/4=200][Q:1/4=200][Q:1/4=200][Q:1/4=200] B8 c8 | c4 (d6 c2 B4- | B4) G4 A4 A4- | %49
w: Su- sce-|pit Is\- * *|* ra- el pu\-|
 A4 F4 E8 | E8 D4 (d2 c2 | B2 A2 B8) c4 | c8 A4 A4 | B8 G4 A4- | A4 A4 G8- | G4 (c6 B2 A4- | %56
w: * e- rum|su- um, re\- *|* * * cor-|da- tus mi-|se- ri- cor\-|* di- ae|* su\- * *|
 A2 G2 G8 ^F4) | G16 ||[Q:1/4=130][Q:1/4=130][Q:1/4=130][Q:1/4=130] z18 | z20 || %60
w: |ae.|||
[M:4/2][Q:1/4=200][Q:1/4=200][Q:1/4=200][Q:1/4=200] z8 G6 G2 | B4 (d6 cB A2 B2 | c8) G4 B4 | %63
w: Glo- ri-|a Pa\- * * * *|* tri, et|
 A12 A4 | B4 B4 B4 c4- | c2 B2 A4 (B8- | B4 ^c4 d8) | B16 || %68
w: Fi- li-|o, et Spi- ri\-|* tu- i san\-||cto:|
[Q:1/4=130][Q:1/4=130][Q:1/4=130][Q:1/4=130] z18 | z18 || %70
w: ||
V:2
 z16 || z4 E6 F2 G4 | A4 (G6 FE D4) | (E8 D6) D2 | D16 || z18 | z18 ||[M:4/2] z16 | %8
w: |A- ni- ma|me- a * * *|Do\- * mi-|num.||||
 z4 D4 (E2 F2 G2 E2 | F4) E4 D8 | C8 z8 | z16 | C6 D2 E4 D4- | D4 F4 E4 D4 | E8 D4 D4 | %15
w: Hu- mi\- * * *|* li- ta-|tem||ec- ce e- nim|* ex hoc be-|a- tam me|
 (E2 F2 G8 ^F4) | G8 G6 G2 | G4 F4 E8- | E4 E4 D8 | D16 || z20 | z18 ||[M:4/2] z4 G4 F4 E4- | %23
w: di\- * * *|cent o- mnes|ge- ne- ra\-|* ti- o-|nes.|||Et mi- se\-|
 E4 D4 E4 ^F4 | (G6 =F2 E4) D4 | E8 z8 | z4 G,4 A,4 C4- | C4 B,4 C4 E4 | D8 E6 E2 | F8 z4 D4 | %30
w: * ri- cor- di-|a * * e-|ius|a pro- ge\-|* ni- e in|pro- ge- ni-|es ti-|
 (E2 F2 G2 E2 F4) F4 | D8 D8 | D16 || x16 x2 | x16 x2 || z8 D8 | E6 F2 G4 G4 |[M:4/2] F8 E4 E4 | %38
w: men\- * * * * ti-|bus e-|um.|||De-|po- su- it po-|ten- tes de|
 (D6 E2 F2 G2 A4- | A2 GF E2 F2 G8) | G4 A4 (G4 F2 E2 | D4) E4 E8- | E4 B,4 D6 D2 | D16 || z18 | %45
w: se\- * * * *||de, et ex\- * *|* al- ta\-|* vit hu- mi-|les.||
 z18 ||[M:4/2] z4 G4 E4 E4 | F6 E2 D4 (G4- | G2 F2 E2 D2 C4) C4 | (D6 C2 B,2 A,2 B,4) | %50
w: |Su- sce- pit|Is- ra- el pu\-|* * * * * e-|rum * * * *|
 (C6 B,2 A,2 G,2 A,4) | G,8 G8 | A8 ^F8 | G8 E8 | F8 D8 | E8 C8 | D8 D8 | D16 || z18 | z20 || %60
w: su\- * * * *|um, re-|cor- da-|tus mi-|se- ri-|cor- di-|ae su-|ae.|||
[M:4/2] D6 D2 E4 (G4- | G2 FE D2 E2 F8) | C4 E8 (G4- | G4 ^F2 E2 F4) F4 | G4 G8 E4 | A6 A2 G4 (D4 | %66
w: Glo- ri- a Pa\-||tri, et Fi\-|* * * * li-|o, et Spi-|ri- tu- i san\-|
 E2 F2 G8 ^F4) | G16 || z18 | z18 || %70
w: |cto:|||
V:3
"^Magnificat octavi toni""^Francesco Soriano\n(1549-1621)" G4 A2 G2 G2 c2 c4 || c12 c4 | c8 B8 | %3
w: Ma- gni\- * fi\- * cat|A- ni-|ma me-|
 c8 A6 A2 | G16 || G2 A2 c8 d2 c4 | c8 B2 c2 A2 G4 ||[M:4/2][K:treble-8] G8 A4 c4 | B8 c8 | z16 | %10
w: a Do- mi-|num.|~Et ex- ultavit~spiritus me- us|in~Deo~salu- ta- ri me- o.|Qui- a re-|spe- xit||
 z4 c4 (d2 c2 B2 A2 | G4) G4 (A2 G2 G4- | G4 ^F4) G8 | z4 d4 c4 B4 | c8 G4 G4 | c8 d8 | z4 e8 e4 | %17
w: an- cil\- * * *|* lae su\- * *|* * ae:|ex hoc be-|a- tam me|di- cent|o- mnes|
 d6 c2 B4 G4 | (c6 B2 A8) | G16 || G2 A2 c8 d2 c2 c4 | c8 B2 c2 A2 G4 || %22
w: ge- ne- ra- ti-|o\- * *|nes.|Qui- a fecit~mihi~magna~qui po- tens est:|et~sanctum no- men e- ius.|
[M:4/2][K:treble-8] G8 A4 c4- | c4 B4 c6 c2 | d4 (e2 d2 c2 B2 A4) | B4 G4 A4 c4- | c4 B4 c4 A4- | %27
w: Et mi- se\-|* ri- cor- di-|a e\- * * * *|ius a pro- ge\-|* ni- e in|
 A4 G4 (A6 G2 | F4) G4 c8- | c8 z8 | z4 G4 (A2 B2 c2 A2 | B4) B2 B2 A8 | G16 || G2 A2 c8 d2 c4 | %34
w: * pro- ge\- *|* ni- es||ti- men\- * * *|* ti- bus e-|um.|Fe- cit potentiam~in~brachio su- o:|
 c8 B2 c2 A2 G4 || z16 | z8 G8 |[M:4/2][K:treble-8] A6 B2 c4 c4 | B8 A4 A4 | (c8 d8) | %40
w: dispersit~superbos~mente cor- dis su- i.||De-|po- su- it po-|ten- tes de|se\- *|
 e4 A4 c4 c4 | B8 c8 | (B4 A2 G2 A4) A4 | G16 || G2 A2 c8 d2 c4 | c8 B2 c2 A2 G4 || %46
w: de, et ex- al-|ta- vit|hu\- * * * mi-|les.|~E- su- rientes~implevit bo- nis:|et~divites~dimi- sit i- na- nes.|
[M:4/2][K:treble-8] z8 z4 c4 | A4 A4 B6 A2 | G4 (c6 B2 A2 G2 | F2 G2 A8) G4 | A4 (G8 ^F4) | %51
w: Su-|sce- pit Is- ra-|el pu\- * * *|* * * e-|rum su\- *|
 G8 z4 e4- | e4 e4 d8 | d8 z4 c4 | c4 d4 (B8 | c6 d2 e8) | d4 B4 A8 | G16 || G2 A2 c8 d2 c4 | %59
w: um, re\-|* cor- da-|tus mi-|se- ri- cor\-||di ae su-|ae.|Si- cut locutus~est~ad~patres no- stros,|
 c8 B2 c2 A2 G2 G4 ||[M:4/2][K:treble-8] z8 z4 G4- | G2 G2 B4 (d6 cB | A2 B2 c4) c4 G4 | %63
w: Abraham~et~semini~e- ius in sae- cu- la.|Glo\-|* ri- a Pa\- * *|* * * tri, et|
 d6 d2 d4 d4- | d4 d4 e6 d2 | c4 (d6 c2 B2 A2 | G8 A8) | G16 || G2 A2 c8 d2 c4 | c8 B2 c2 A2 G4 || %70
w: Fi- li- o, et|* Spi- ri- tu-|i san\- * * *||cto:|Si- cut erat~in~principio,~et~nunc,~et sem- per,|et~in~saecula~saecu- lo- rum. A- men.|
V:4
 z16 || z4 C,6 D,2 E,4 | F,4 C,4 (G,8 | C,6 B,,C, D,4) D,4 | G,,16 || z18 | z18 || %7
w: |A- ni- ma|me- a Do\-|* * * * mi-|num.|||
[M:4/2] z4 G,4 F,4 E,4 | D,8 C,8 | z8 z4 G,4 | (A,2 G,2 F,2 E,2 D,4) D,4 | %11
w: Qui- a re-|spe- xit|an-|cil\- * * * * lae|
 (E,2 D,2 C,2 B,,2 C,2 B,,2 B,,2 A,,G,, | A,,8) G,,8 | z16 | z16 | z16 | z4 C,8 C,4 | %17
w: su\- * * * * * * * *|* ae:||||o- mnes|
 D,4 D,4 (E,6 D,2 | C,4) C,4 D,8 | G,,16 || z20 | z18 ||[M:4/2] z16 | z8 z4 A,4 | G,4 E,8 F,4 | %25
w: ge- ne- ra\- *|* ti- o-|nes.||||Et|mi- se- ri-|
 E,6 E,2 D,4 (C,2 D,2 | E,2 F,2 G,4) F,8 | z16 | z8 z4 C,4 | (F,2 G,2 A,2 F,2 G,8) | C,8 F,8 | %31
w: cor- di- a e\- *|* * * ius||ti-|men\- * * * *|ti- bus|
 (G,8 D,8) | G,,16 || x16 x2 | x16 x2 || z16 | z16 |[M:4/2] D,8 E,6 F,2 | G,4 G,4 F,8 | %39
w: e\- *|um.|||||De- po- su-|it po- ten-|
 F,4 A,4 G,8 | C,4 F,4 E,4 F,4 | (G,2 F,2 E,2 D,2 C,4) A,,4 | (E,8 D,6) D,2 | G,,16 || z18 | z18 || %46
w: tes de se-|de, et ex- al-|ta\- * * * * vit|hu\- * mi-|les.|||
[M:4/2] G,8 A,8 | F,8 G,8 | E,8 F,8 | D,8 E,8 | C,8 D,8 | G,,4 (G,2 F,2 E,2 D,2 C,2 B,,2) | %52
w: Su- sce-|pit Is-|ra- el|pu- e-|rum su-|um, re\- * * * * *|
 A,,4 A,,4 D,8 | G,,4 G,4 (C2 B,2 A,2 G,2 | F,4) D,4 G,4 G,,4 | C,4 (A,,6 B,,2 C,2 A,,2 | %56
w: * cor- da-|tus mi- se\- * * *|* ri- cor- di|ae su\- * * *|
 B,,6 C,2 D,8) | G,,16 || z18 | z20 ||[M:4/2] z16 | z16 | z16 | z16 | G,8 G,4 A,4- | %65
w: |ae.|||||||Et Spi- ri\-|
 A,2 G,2 ^F,4 (G,6 =F,2 | E,8 D,8) | G,,16 || z18 | z18 || %70
w: * tu- i san\- *||cto:|||

